X: 1
T: Daniel's Dream
M: 6/8
L: 1/8
R: jig
K: Amin
|: cBA BGE | ^F2 E BGE | cBA BAG | ^FAD DFA |
cBA BGE | ^F2 E ^GAB | A^cc cde | dB^G A3   :|
|: c2 B dcA | FAc fed | cBd cAF | EGc e_ed |
c2 B dcA | FAc fed | ^ccc cde | dB^G A3   :|
